X: 11052
T: The Northern Lass
C: attr. James Oswald
%R: air, strathspey
B: James Oswald "The Caledonian Pocket Companion" v.1 b.1 p.5 #2
Z: 2020 John Chambers <jc:trillian.mit.edu>
M: C
L: 1/8
K: D
%%slurgraces 1
%%graceslurs 1
"_Slow"A2 |\
F2(ED) (EF)A2 | {de}f2Te>d B3A | d>edB AFED | B4 z2d2 |\
A>BAF (GF) (BA) | (dB)(AF) E2A2 | BdcB A<F TE>D | D6 :: A2 |
F2(ED) (EF) (A>B) | AFED (EF) d>e | {de}f2F2 {Bc}d2Tc>B | B4 z2(A/B/c) |\
dABd F2{FG}A2 | dBAF E2A2 | (3(Bcd) (3(dcB) (A<F) (TE>D) | D6 :|


